X: 45
T: Tongyang xifu huo bucheng
L: 1/8
M: 2/4
K: G
d ^c/ d/e2 [I:setbarnb 1]| 
e a g e | 
d ^c d g | 
e4 | 
d ^c/ d/e2 | 
e a g e | 
d ^c d e | 
d4 |]

@@@ Tune index: 8919
